static/assets/img/icons/theme/cooking/dinner.svg

<svg height="24" viewBox="0 0 24 24" width="24" xmlns="http://www.w3.org/2000/svg"><g fill="none" fill-rule="evenodd"><path d="m0 0h24v24h-24z" opacity="0"/><g fill="#000"><path d="m12.5 19c-3.58985087 0-6.5-2.9101491-6.5-6.5 0-3.58985087 2.91014913-6.5 6.5-6.5 3.5898509 0 6.5 2.91014913 6.5 6.5 0 3.5898509-2.9101491 6.5-6.5 6.5zm0-2.6c2.1539105 0 3.9-1.7460895 3.9-3.9s-1.7460895-3.9-3.9-3.9-3.9 1.7460895-3.9 3.9 1.7460895 3.9 3.9 3.9zm0-1.3c-1.4359403 0-2.6-1.1640597-2.6-2.6s1.1640597-2.6 2.6-2.6 2.6 1.1640597 2.6 2.6-1.1640597 2.6-2.6 2.6z" opacity=".3"/><path d="m22 13.5c.2864451 0 .5288541.2115967.5675566.4954151l.530441 3.889901c.073278.5373717-.3029443 1.0324011-.8403161 1.1056791-.0439729.0059963-.0883017.0090048-.1326815.0090048-.5673988 0-1.0273665-.4599676-1.0273665-1.0273665 0-.0310523.0014079-.0620886.0042192-.0930134l.3528794-3.8816735c.0256377-.2820143.2620907-.4979466.5452679-.4979466z" opacity=".3"/><path d="m24 5v7h-3v-4c0-1.65685425 1.3431458-3 3-3z" transform="matrix(-1 0 0 1 45 0)"/><path d="m.71428571 5 .3226834 3.32873399c.01954682.20164091.18901621.35547654.39160232.35547654s.37205549-.15383563.39160232-.35547654l.32268339-3.32873399h.71428572l.32268339 3.32873399c.01954683.20164091.18901621.35547654.39160232.35547654s.3720555-.15383563.39160232-.35547654l.3226834-3.32873399h.71428571v3.39473684c0 1.38071188-1.11928813 2.49999996-2.5 2.49999996s-2.5-1.11928808-2.5-2.49999996v-3.39473684z"/><path d="m2.5 12.3684211c.40055463 0 .73115721.3132771.75269782.7132521l.2611126 4.8484486c.03015399.559912-.39929976 1.0382551-.95921179 1.0684091-.01818307.0009792-.0363892.0014691-.05459863.0014691-.56072341 0-1.01527955-.4545561-1.01527955-1.0152796 0-.0182094.00048989-.0364155.00146913-.0545986l.2611126-4.8484486c.02154061-.399975.35214319-.7132521.75269782-.7132521z" opacity=".3"/></g></g></svg>

<svg width="24px" height="24px" viewBox="0 0 24 24" version="1.1" xmlns="http://www.w3.org/2000/svg" xmlns:xlink="http://www.w3.org/1999/xlink">
    <title>Icon For Dinner</title>
    <g stroke="none" stroke-width="1" fill="none" fill-rule="evenodd">
        <rect opacity="0" x="0" y="0" width="24" height="24"></rect>
        <path d="M12.5,19 C8.91014913,19 6,16.0898509 6,12.5 C6,8.91014913 8.91014913,6 12.5,6 C16.0898509,6 19,8.91014913 19,12.5 C19,16.0898509 16.0898509,19 12.5,19 Z M12.5,16.4 C14.6539105,16.4 16.4,14.6539105 16.4,12.5 C16.4,10.3460895 14.6539105,8.6 12.5,8.6 C10.3460895,8.6 8.6,10.3460895 8.6,12.5 C8.6,14.6539105 10.3460895,16.4 12.5,16.4 Z M12.5,15.1 C11.0640597,15.1 9.9,13.9359403 9.9,12.5 C9.9,11.0640597 11.0640597,9.9 12.5,9.9 C13.9359403,9.9 15.1,11.0640597 15.1,12.5 C15.1,13.9359403 13.9359403,15.1 12.5,15.1 Z" fill="#000000" opacity="0.3"></path>
        <path d="M22,13.5 L22,13.5 C22.2864451,13.5 22.5288541,13.7115967 22.5675566,13.9954151 L23.0979976,17.8853161 C23.1712756,18.4226878 22.7950533,18.9177172 22.2576815,18.9909952 C22.2137086,18.9969915 22.1693798,19 22.125,19 L22.125,19 C21.5576012,19 21.0976335,18.5400324 21.0976335,17.9726335 C21.0976335,17.9415812 21.0990414,17.9105449 21.1018527,17.8796201 L21.4547321,13.9979466 C21.4803698,13.7159323 21.7168228,13.5 22,13.5 Z" fill="#000000" opacity="0.3"></path>
        <path d="M24,5 L24,12 L21,12 L21,8 C21,6.34314575 22.3431458,5 24,5 Z" fill="#000000" transform="translate(22.500000, 8.500000) scale(-1, 1) translate(-22.500000, -8.500000) "></path>
        <path d="M0.714285714,5 L1.03696911,8.32873399 C1.05651593,8.5303749 1.22598532,8.68421053 1.42857143,8.68421053 C1.63115754,8.68421053 1.80062692,8.5303749 1.82017375,8.32873399 L2.14285714,5 L2.85714286,5 L3.17982625,8.32873399 C3.19937308,8.5303749 3.36884246,8.68421053 3.57142857,8.68421053 C3.77401468,8.68421053 3.94348407,8.5303749 3.96303089,8.32873399 L4.28571429,5 L5,5 L5,8.39473684 C5,9.77544872 3.88071187,10.8947368 2.5,10.8947368 C1.11928813,10.8947368 -7.19089982e-16,9.77544872 -8.8817842e-16,8.39473684 L0,5 L0.714285714,5 Z" fill="#000000"></path>
        <path d="M2.5,12.3684211 L2.5,12.3684211 C2.90055463,12.3684211 3.23115721,12.6816982 3.25269782,13.0816732 L3.51381042,17.9301218 C3.54396441,18.4900338 3.11451066,18.9683769 2.55459863,18.9985309 C2.53641556,18.9995101 2.51820943,19 2.5,19 L2.5,19 C1.93927659,19 1.48472045,18.5454439 1.48472045,17.9847204 C1.48472045,17.966511 1.48521034,17.9483049 1.48618958,17.9301218 L1.74730218,13.0816732 C1.76884279,12.6816982 2.09944537,12.3684211 2.5,12.3684211 Z" fill="#000000" opacity="0.3"></path>
    </g>
</svg>
